common/src/main/resources/icons/plugins/javascript/nodejs/express.svg

<!--
  - The MIT License (MIT)
  -
  - Copyright (c) 2015-2024 Elior "Mallowigi" Boukhobza
  -
  - Permission is hereby granted, free of charge, to any person obtaining a copy
  - of this software and associated documentation files (the "Software"), to deal
  - in the Software without restriction, including without limitation the rights
  - to use, copy, modify, merge, publish, distribute, sublicense, and/or sell
  - copies of the Software, and to permit persons to whom the Software is
  - furnished to do so, subject to the following conditions:
  -
  - The above copyright notice and this permission notice shall be included in all
  - copies or substantial portions of the Software.
  -
  - THE SOFTWARE IS PROVIDED "AS IS", WITHOUT WARRANTY OF ANY KIND, EXPRESS OR
  - IMPLIED, INCLUDING BUT NOT LIMITED TO THE WARRANTIES OF MERCHANTABILITY,
  - FITNESS FOR A PARTICULAR PURPOSE AND NONINFRINGEMENT. IN NO EVENT SHALL THE
  - AUTHORS OR COPYRIGHT HOLDERS BE LIABLE FOR ANY CLAIM, DAMAGES OR OTHER
  - LIABILITY, WHETHER IN AN ACTION OF CONTRACT, TORT OR OTHERWISE, ARISING FROM,
  - OUT OF OR IN CONNECTION WITH THE SOFTWARE OR THE USE OR OTHER DEALINGS IN THE
  - SOFTWARE.
  -->

<svg data-big="true" width="16px" height="16px" viewBox="0 0 16 16" fill="none" xmlns="http://www.w3.org/2000/svg">
  <g fill="#231f20">
    <path
      d="M4.72667 12.5C6.14222 12.5 7.05222 11.9222 7.80333 11.063L7.11 10.4259C6.50333 11.0778 5.78111 11.5074 4.75556 11.5074C3.42667 11.5074 2.28556 10.5741 2.12667 8.91481H8.04889C8.06333 8.78148 8.06333 8.69259 8.06333 8.54444C8.06333 6.30741 6.79222 4.5 4.58222 4.5C2.51667 4.5 1 6.27778 1 8.48519V8.51481C1 10.8852 2.67556 12.5 4.72667 12.5ZM2.12667 8.07037C2.27111 6.57407 3.25333 5.46296 4.55333 5.46296C6.04111 5.46296 6.82111 6.67778 6.93667 8.07037H2.12667Z"
    />
    <path
      d="M7.84098 11.0959L7.87308 11.0591L7.83716 11.0261L7.14383 10.3891L7.10725 10.3555L7.0734 10.3919C6.4738 11.0361 5.76407 11.4574 4.75556 11.4574C3.46832 11.4574 2.35817 10.5653 2.18207 8.96482H8.04889H8.09377L8.0986 8.9202C8.11333 8.78418 8.11333 8.69296 8.11333 8.54537V8.54444C8.11333 7.41693 7.79303 6.39396 7.19034 5.65181C6.58679 4.90861 5.70224 4.45 4.58222 4.45C2.48347 4.45 0.95 6.25609 0.95 8.48519V8.51481C0.95 10.9111 2.64626 12.55 4.72667 12.55C6.15956 12.55 7.08247 11.9636 7.84098 11.0959ZM6.882 8.02037H2.18212C2.34326 6.56923 3.3026 5.51296 4.55333 5.51296C5.28191 5.51296 5.83488 5.8097 6.22106 6.27632C6.5982 6.73201 6.81794 7.35203 6.882 8.02037Z"
    />
    <path
      d="M10.9178 8.423L8.11556 4.66003H9.38667L11.5822 7.65263L13.8067 4.66003H15.0489L12.2178 8.40818L15.1644 12.3193H13.8789L11.5678 9.16374L9.24222 12.3193H8L10.9178 8.423Z"
    />
    <path
      d="M8.11556 4.61003H8.01598L8.07545 4.6899L10.8554 8.42291L7.95998 12.2893L7.90009 12.3693H8H9.24222H9.26749L9.28247 12.349L11.5677 9.24819L13.8386 12.3488L13.8535 12.3693H13.8789H15.1644H15.2647L15.2044 12.2892L12.2804 8.40822L15.0888 4.69017L15.1493 4.61003H15.0489H13.8067H13.7815L13.7665 4.63021L11.5825 7.56846L9.42698 4.63046L9.412 4.61003H9.38667H8.11556Z"
    />
  </g>
</svg>

<svg xmlns="http://www.w3.org/2000/svg" width="16" height="16" fill="none" data-big="true"><g fill="#231f20"><path d="M4.727 12.5c1.415 0 2.325-.578 3.076-1.437l-.693-.637c-.607.652-1.329 1.081-2.354 1.081-1.33 0-2.47-.933-2.63-2.592H8.05c.014-.134.014-.222.014-.37 0-2.238-1.27-4.045-3.48-4.045C2.516 4.5 1 6.278 1 8.485v.03c0 2.37 1.676 3.985 3.727 3.985m-2.6-4.43c.144-1.496 1.126-2.607 2.426-2.607 1.488 0 2.268 1.215 2.384 2.607z"/><path d="m7.841 11.096.032-.037-.036-.033-.693-.637-.037-.034-.034.037c-.6.644-1.309 1.065-2.317 1.065-1.288 0-2.398-.892-2.574-2.492h5.912l.005-.045c.014-.136.014-.227.014-.375 0-1.128-.32-2.151-.923-2.893-.603-.743-1.488-1.202-2.608-1.202C2.483 4.45.95 6.256.95 8.485v.03c0 2.396 1.696 4.035 3.777 4.035 1.433 0 2.355-.586 3.114-1.454M6.882 8.02h-4.7c.161-1.45 1.12-2.507 2.371-2.507.729 0 1.282.297 1.668.763.377.456.597 1.076.661 1.744"/><path d="M10.918 8.423 8.116 4.66h1.27l2.196 2.993 2.225-2.993h1.242l-2.831 3.748 2.946 3.911H13.88l-2.311-3.155-2.326 3.155H8z"/><path d="M8.116 4.61h-.1l.06.08 2.78 3.733-2.896 3.866-.06.08h1.367l.015-.02 2.286-3.1 2.27 3.1.016.02h1.41l-.06-.08-2.924-3.88L15.09 4.69l.06-.08h-1.368l-.014.02-2.184 2.938L9.426 4.63l-.015-.02H8.116"/></g></svg>
